X:95
T:Since Then I'm Doomed. LIT.095
M:2/4
Q:1/4=120
L:1/8
B:Wm. Litten MS, 1802
Z:Village Music Project 2017 Anne Wride
K:D
A2GF | F3 E/D/ | EE EF | A>G FA |
d2 c>e | d2 c>e | dA GF | F2 E2 |
A2 GF | F3 E/D/ | EE EF | A>G FA |
dc BA | dA c/B/A/G/ | F2E2 | D4 |
E2 EG | GF FA | AE FG | GF2A |
c2 BA | c2 BA | dA GF | FE2A |
AE EG | EF F2 | AE E>G | GF2 A |
dc BA | dA c/B/A/G/ | F2E2 | D3 A |
dc BA | dA c/B/A/G/ | F2E2 | D4 |]

